svgs/duotone/users-medical.svg

<svg xmlns="http://www.w3.org/2000/svg" viewBox="0 0 640 512"><!-- Font Awesome Pro 6.0.0-alpha2 by @fontawesome - https://fontawesome.com License - https://fontawesome.com/license (Commercial License) --><defs><style>.fa-secondary{opacity:.4}</style></defs><path d="M128 160C172.184 160 208 124.182 208 80S172.184 0 128 0C83.82 0 48 35.818 48 80S83.82 160 128 160ZM319.859 320C377.273 320 423.814 273.436 423.814 216C423.814 158.562 377.273 112 319.859 112C262.451 112 215.904 158.562 215.904 216C215.904 273.436 262.451 320 319.859 320ZM512 160C556.184 160 592 124.182 592 80S556.184 0 512 0C467.82 0 432 35.818 432 80S467.82 160 512 160ZM476 484H460C435.738 484 416 464.262 416 440V392C416 381.004 420.199 371.059 426.893 363.338C409.42 356.139 390.195 352 369.887 352H270.113C191.631 352 128 411.693 128 485.332C128 500.059 140.727 512 156.422 512H477.873C476.775 508.16 476 504.188 476 500V484ZM551.92 192H490.08C477.279 192 465.195 195.037 454.221 200.24C454.834 205.475 455.814 210.604 455.814 216C455.814 249.715 443.033 280.211 422.65 304H486.346C494.424 294.309 506.428 288 520 288H568C581.572 288 593.576 294.309 601.654 304H622.385C632.113 304 640 295.641 640 285.332C640 233.785 600.566 192 551.92 192ZM183.906 216C183.906 210.551 184.889 205.371 185.516 200.088C174.613 194.967 162.613 192 149.92 192H88.08C39.438 192 0 233.785 0 285.332C0 295.641 7.887 304 17.615 304H217.07C196.688 280.211 183.906 249.715 183.906 216Z" class="fa-secondary"/><path d="M628 380H580V332C580 325.373 574.627 320 568 320H520C513.373 320 508 325.373 508 332V380H460C453.373 380 448 385.373 448 392V440C448 446.627 453.373 452 460 452H508V500C508 506.627 513.373 512 520 512H568C574.627 512 580 506.627 580 500V452H628C634.627 452 640 446.627 640 440V392C640 385.373 634.627 380 628 380Z" class="fa-primary"/></svg>

<svg xmlns="http://www.w3.org/2000/svg" viewBox="0 0 640 512"><!--! Font Awesome Pro 6.3.0 by @fontawesome - https://fontawesome.com License - https://fontawesome.com/license (Commercial License) Copyright 2023 Fonticons, Inc. --><defs><style>.fa-secondary{opacity:.4}</style></defs><path class="fa-primary" d="M628 380h-48v-48c0-6.627-5.373-12-12-12h-48c-6.627 0-12 5.373-12 12v48h-48c-6.627 0-12 5.373-12 12v48c0 6.627 5.373 12 12 12h48v48c0 6.627 5.373 12 12 12h48c6.627 0 12-5.373 12-12v-48h48c6.627 0 12-5.373 12-12v-48C640 385.4 634.6 380 628 380z"/><path class="fa-secondary" d="M128 160c44.18 0 80-35.82 80-80S172.2 0 128 0C83.82 0 48 35.82 48 80S83.82 160 128 160zM319.9 320c57.41 0 103.1-46.56 103.1-104c0-57.44-46.54-104-103.1-104c-57.41 0-103.1 46.56-103.1 104C215.9 273.4 262.5 320 319.9 320zM512 160c44.18 0 80-35.82 80-80S556.2 0 512 0c-44.18 0-80 35.82-80 80S467.8 160 512 160zM476 484h-16c-24.26 0-44-19.74-44-44v-48c0-10.1 4.199-20.94 10.89-28.66C409.4 356.1 390.2 352 369.9 352H270.1C191.6 352 128 411.7 128 485.3C128 500.1 140.7 512 156.4 512h321.5C476.8 508.2 476 504.2 476 500V484zM551.9 192h-61.84c-12.8 0-24.88 3.037-35.86 8.24C454.8 205.5 455.8 210.6 455.8 216c0 33.71-12.78 64.21-33.16 88h63.7C494.4 294.3 506.4 288 520 288h48c13.57 0 25.58 6.309 33.65 16h20.73C632.1 304 640 295.6 640 285.3C640 233.8 600.6 192 551.9 192zM183.9 216c0-5.449 .9824-10.63 1.609-15.91C174.6 194.1 162.6 192 149.9 192H88.08C39.44 192 0 233.8 0 285.3C0 295.6 7.887 304 17.62 304h199.5C196.7 280.2 183.9 249.7 183.9 216z"/></svg>
